X:198 
T:Spey in Spate (reel), The
F:file ID: cre.5/198spey_s
B:CRE5.210 (Tuile sa SpÃÂÃÂÃÂÃÂ©)
S:John Doherty
Q:180
M:C
R:reel
K:D
A,B,C||D2FD A,DFA|dcBA ^GAFD|E2GE GAce|gecA ^GA=GE|
D2FD A,DFA|dcBA ^GAfd|gefd ecdB|1 AFGE D:|2 AFGE D2||
|:Ac|d2 fd AdFA|DFAd fagf|e2ge cAGE|CEGc egfe|
d2fd AdFA|DFAd fagf|gefd ecdB|1 AFGE D2:|2 AFGE D2Ac|d8|]

%%%

